X: 1666
T: the Peacemaker   #2
R: hornpipe, reel
%S: s:2 b:13(6.5+6.5)
B: O'Neill's 1850 #1666
O: J.O'Neill
Z: Compacted via repeats and multiple endings [JC]
M: 2/4
L: 1/16
K: G
   A2 |: GBdB cBAG | cBcd [1,3 c2(~BA) | GBdB cBAG | d2DD D2D2   :|[2,4 efge | dedc BGAF | G2G2 G2 :|
|: d2 |: gfga gfed | cBcd [1,3 c2c2    | agab agfe | f2dd d2(ef) :|[2,4 efge | dedc BGAF | G2G2 G2 :|
